res/drawable/empty_box.svg

<svg height="128" viewBox="0 0 1206 1024" width="150.75" xmlns="http://www.w3.org/2000/svg"><path d="m1032.560359 320.655226h-858.242027l-174.318332 312.886794v390.45798h1206.746704v-390.45798zm-275.854754 316.35619a153.332253 153.332253 0 0 1 -306.664506 0h-378.088827l139.530088-266.313913h783.461442l139.530088 266.313913zm-167.322973-637.011416h52.587759v189.10098h-52.587759zm-356.895337 93.881122 37.182883-37.182882 133.722619 133.722619-37.182883 37.182883zm579.294984 96.615158 133.722619-133.722619 37.182883 37.182883-133.722619 133.722619z" fill="#8a8a8a"/></svg>

<svg xmlns="http://www.w3.org/2000/svg" width="150.75" height="128" viewBox="0 0 1206 1024"><path fill="#8a8a8a" d="M1032.56 320.655H174.318L0 633.542V1024h1206.747V633.542zM756.706 637.011a153.332 153.332 0 0 1-306.665 0H71.952l139.53-266.313h783.462l139.53 266.313zM589.383 0h52.587v189.101h-52.587zM232.487 93.881l37.183-37.183 133.723 133.723-37.183 37.183zm579.295 96.615L945.505 56.774l37.183 37.183-133.723 133.722z"/></svg>
